X:1
T:La fenna consolaye
A:Valle d'Aosta
B:Pignet Vuillermoz e Willien, VALDOTEN, TZANTEN!, Stamperia Musicale Fratelli Amprimo, Torino 1957
C:trad.
O:Italia
N:Testo raccolto da Jean Baptiste Cerlogne
Z:Gian Mario Navillod
M:2/4
Q:1/4=120
L:1/16
K:C
G2 G2 G2 |E4 G4 |A2G2 G4 |F2F2 F2F2 |D4 F4 |G2F2 F4 |E2E2 E2F2 |G2G2 G2G2 |A2G2 F2E2 |E4 D4-|D2E2 E2F2 |G2G2 G2G2 |A2G2 F4 |G4 E4-|]

